src/icons/pipelines.svg

<svg width="64" height="64" viewBox="0 0 64 64" fill="none" xmlns="http://www.w3.org/2000/svg">
<g clip-path="url(#clip0_1_19)">
<path fill-rule="evenodd" clip-rule="evenodd" d="M60 34L32 34L32 30L60 30V34Z" fill="#F6821F"/>
<path fill-rule="evenodd" clip-rule="evenodd" d="M59.3798 32.0003L54.5111 27.1313L56.7739 24.8687L63.9053 32.0004L56.7738 39.1314L54.5112 36.8686L59.3798 32.0003Z" fill="#F6821F"/>
<path d="M13.2121 17.8627C12.285 20.2964 11.5825 23.4364 11.2371 27L7.21986 27C7.57922 22.9849 8.36513 19.35 9.47417 16.4388C10.2488 14.4054 11.2199 12.622 12.4 11.3118C13.5796 10.002 15.1306 9 17 9V9H42C43.8694 9 45.4204 10.002 46.6001 11.3118C47.7801 12.622 48.7512 14.4054 49.5258 16.4388C50.6349 19.35 51.4208 22.9849 51.7801 27L47.7629 27C47.4175 23.4364 46.715 20.2964 45.7879 17.8627C45.1148 16.0958 44.362 14.8039 43.6279 13.9888C42.8933 13.1732 42.3397 13 42 13H22.8566C23.4905 14.0149 24.0459 15.1788 24.5258 16.4388C26.0803 20.5193 27 26.0216 27 32C27 37.9784 26.0803 43.4807 24.5258 47.5612C24.0459 48.8212 23.4905 49.9851 22.8566 51H42C42.3397 51 42.8933 50.8268 43.6279 50.0112C44.362 49.1961 45.1148 47.9042 45.7879 46.1373C46.715 43.7036 47.4175 40.5636 47.7629 37L51.7801 37C51.4208 41.0151 50.6349 44.65 49.5258 47.5612C48.7512 49.5946 47.7801 51.378 46.6001 52.6882C45.4204 53.998 43.8694 55 42 55H17C15.1306 55 13.5796 53.998 12.4 52.6882C11.2199 51.378 10.2488 49.5946 9.47417 47.5612C8.36513 44.65 7.57922 41.0151 7.21986 37L11.2371 37C11.5825 40.5636 12.285 43.7036 13.2121 46.1373C13.8852 47.9042 14.638 49.1961 15.3721 50.0112C16.1067 50.8268 16.6603 51 17 51C17.3397 51 17.8933 50.8268 18.6279 50.0112C19.362 49.1961 20.1148 47.9042 20.7879 46.1373C22.1288 42.6173 23 37.6196 23 32C23 26.3804 22.1288 21.3827 20.7879 17.8627C20.1148 16.0958 19.362 14.8039 18.6279 13.9888C17.8933 13.1732 17.3397 13 17 13V13C16.6603 13 16.1067 13.1732 15.3721 13.9888C14.638 14.8039 13.8852 16.0958 13.2121 17.8627Z" fill="#F6821F"/>
<path d="M-9.83506e-08 32.25C-1.52668e-07 33.4926 1.00736 34.5 2.25 34.5C3.49264 34.5 4.5 33.4926 4.5 32.25C4.5 31.0074 3.49264 30 2.25 30C1.00736 30 -4.4033e-08 31.0074 -9.83506e-08 32.25Z" fill="#F6821F"/>
<path d="M7 32.25C7 33.4926 8.00736 34.5 9.25 34.5C10.4926 34.5 11.5 33.4926 11.5 32.25C11.5 31.0074 10.4926 30 9.25 30C8.00736 30 7 31.0074 7 32.25Z" fill="#F6821F"/>
<path d="M14 32.25C14 33.4926 15.0074 34.5 16.25 34.5C17.4926 34.5 18.5 33.4926 18.5 32.25C18.5 31.0074 17.4926 30 16.25 30C15.0074 30 14 31.0074 14 32.25Z" fill="#F6821F"/>
</g>
<defs>
<clipPath id="clip0_1_19">
<rect width="64" height="64" fill="white"/>
</clipPath>
</defs>
</svg>

<svg xmlns="http://www.w3.org/2000/svg" width="64" height="64" fill="none" viewBox="0 0 64 64"><g fill="#F6821F" clip-path="url(#clip0_1_19)"><path fill-rule="evenodd" d="M60 34H32v-4h28z" clip-rule="evenodd"/><path fill-rule="evenodd" d="m59.38 32-4.869-4.869 2.263-2.262L63.905 32l-7.131 7.131-2.263-2.262z" clip-rule="evenodd"/><path d="M13.212 17.863c-.927 2.433-1.63 5.573-1.975 9.137H7.22c.36-4.015 1.145-7.65 2.254-10.561.775-2.034 1.746-3.817 2.926-5.127S15.13 9 17 9h25c1.87 0 3.42 1.002 4.6 2.312s2.151 3.093 2.926 5.127C50.635 19.35 51.42 22.985 51.78 27h-4.017c-.346-3.564-1.048-6.704-1.975-9.137-.673-1.767-1.426-3.06-2.16-3.874C42.893 13.173 42.34 13 42 13H22.857c.634 1.015 1.189 2.179 1.669 3.439C26.08 20.519 27 26.022 27 32s-.92 11.48-2.474 15.561c-.48 1.26-1.035 2.424-1.67 3.439H42c.34 0 .893-.173 1.628-.989.734-.815 1.487-2.107 2.16-3.874.927-2.433 1.63-5.573 1.975-9.137h4.017c-.36 4.015-1.145 7.65-2.254 10.561-.775 2.034-1.746 3.817-2.926 5.127S43.87 55 42 55H17c-1.87 0-3.42-1.002-4.6-2.312s-2.151-3.093-2.926-5.127C8.365 44.65 7.58 41.015 7.22 37h4.017c.345 3.564 1.048 6.704 1.975 9.137.673 1.767 1.426 3.06 2.16 3.874.735.816 1.288.989 1.628.989s.893-.173 1.628-.989c.734-.815 1.487-2.107 2.16-3.874C22.128 42.617 23 37.62 23 32s-.871-10.617-2.212-14.137c-.673-1.767-1.426-3.06-2.16-3.874C17.893 13.173 17.34 13 17 13s-.893.173-1.628.989c-.734.815-1.487 2.107-2.16 3.874M0 32.25a2.25 2.25 0 1 0 4.5 0 2.25 2.25 0 0 0-4.5 0"/><path d="M7 32.25a2.25 2.25 0 1 0 4.5 0 2.25 2.25 0 0 0-4.5 0m7 0a2.25 2.25 0 1 0 4.5 0 2.25 2.25 0 0 0-4.5 0"/></g><defs><clipPath id="clip0_1_19"><path fill="#fff" d="M0 0h64v64H0z"/></clipPath></defs></svg>
